X: 3
T: The Gatehouse Maid
R: reel
M: 4/4
L: 1/8
K: Gmaj
|A2(3Bcd edBA|~G3A GEDB|A2(3Bcd ed(3Bcd|1 efdB {c}BABG:|2 efdB {c}BAAz|||~a2ea {b}agef|~g2dg ~g2dg|~a2ea {b}agab| gedB {c}BAAz||~a3 b agef|~g3a ~g3e|dega (3bag ab|gedB {c}BABG||


Tune 941	Setting 941

